!!!OTL: Die Narrenkappe
!!!ARE: Europa, Mitteleuropa, Deutschland
!!!SCT: A0356
!!!YEM: Copyright 1995, estate of Helmut Schaffrath.
**kern
*ICvox
*Ivox
!! Mixed meters:  4/1; 6/2
*M4/1
*k[]
*C:
{1cc
1cc
1cc
=1
1b
1g
1a
1b
=2
0cc
0g}
=3
{1.dd
2cc
1b
1a
=4
1g
1f
1g
1e
=5
0d
0c
=6
1r}
{1cc
1cc
1cc
=7
1b
1g
1a
1b
=8
0cc
0g}
=9
{1.dd
2cc
1b
1a
=10
1g
1f
1g
1e
=11
0d
0c
=12
1r}
{1c
1e
1f
=13
1g
1a
1b
1g
=14
1.cc
2b
1.cc
2a
=15
[0g
0g]
=16
1r}
{1g
1a
1b
=17
0cc
0g
=18
1a
1g
0f
=19
[0e
0e]
=20
1r}
{1e
1a
1g
=21
1cc
1b
1a
1g
=22
1f
1g
0e
=23
[0d
0d]
=24
1r}
{1d
1e
1f
=25
1.g
2f
1e
1d
=26
1e
1f
0d
=27
[0c
0c]
=28
1r}
==
!!!AGN: Romanze, Ballade, Lied
!! Rhaw, Bicinia II 1545 No. 78.
!!!ONB: ESAC (Essen Associative Code) Database: ALTDEU
!!!AMT: irregular
!!!AIN: vox
!!!EED: Helmut Schaffrath
!!!EEV: 1.0
*-
